X: 63
T:Miss Harrison's Strathspey. BF13.062
M:4/4
Q:140
S:J.Lishman()MS,c1825,Lakes,Browne Coll.
R:Strathspey
O:England
A:Lakes
Z:vmp.Chris Partington
K:A
A,CEc B>ABc|ABA/c/B A<FFA|A,CEA B>ABc|dfe>d c/A/A3:|!
|:e<ca>c b/a/g/f/ a>f|ecac Bcdf|e<ca>c b/a/g/f/ a>f|e<ca>c e<ee>f|!
e<cac b/a/g/f/ af|e<ca>c B>cdf|(3ece (3fdf (3agf (3edc|\
dB d/c/B/A/ GBBc:|]
